X: 10581
Q: "Allegro Maestoso"
M: C
L: 1/8
K: C
[|\
d3 d e3 e | ^f2 g2 Hc3 B | Ac e2 dB G2 | ^FA dc c2 Bz |\
d3 B cd e^f | g3 ^f gf ed | ec A2 zDAc | e4 ^f2 g2 |
c2 B2 Hz4 | A4 c2 e2 | d4- de cA | G4 THA4 |\
c3 d e2 z2 | g2 f>e e2 e2 | ed^cd g>df>d | c3 c edcB |\
c GAB {d/}cBcd | e2 d>c c2 c2 | B3 c d2 zd | {g}f2 ed d2 d2 |
c3 d e2 zC | EG ce g3 f | e>d e>f d2 zC | EG ce g2 Hz2 |\



